src/apps/scalable/meeting.svg

<?xml version="1.0" encoding="UTF-8" standalone="no"?>
<svg
   t="1715684934361"
   class="icon"
   viewBox="0 0 1024 1024"
   version="1.1"
   p-id="4255"
   width="64"
   height="64"
   id="svg4"
   sodipodi:docname="meeting.svg"
   inkscape:version="1.3.2 (091e20e, 2023-11-25)"
   xmlns:inkscape="http://www.inkscape.org/namespaces/inkscape"
   xmlns:sodipodi="http://sodipodi.sourceforge.net/DTD/sodipodi-0.dtd"
   xmlns:xlink="http://www.w3.org/1999/xlink"
   xmlns="http://www.w3.org/2000/svg"
   xmlns:svg="http://www.w3.org/2000/svg">
  <defs
     id="defs4">
    <linearGradient
       id="b"
       x1="8.3640003"
       x2="8.3640003"
       y1="2.3699999"
       y2="14.902"
       gradientTransform="matrix(60.473632,0,0,60.473632,2026.29,0.48376298)"
       gradientUnits="userSpaceOnUse">
      <stop
         offset="0"
         stop-color="#20ef85"
         id="stop7" />
      <stop
         offset="1"
         stop-color="#12a97e"
         id="stop8" />
    </linearGradient>
    <clipPath
       clipPathUnits="userSpaceOnUse"
       id="clipPath1">
      <rect
         width="896.03784"
         height="896.03784"
         x="63.981079"
         y="63.981079"
         fill="url(#b)"
         rx="208.0293"
         ry="208.0293"
         id="rect1"
         style="fill:url(#linearGradient1);stroke-width:60.4736" />
    </clipPath>
    <linearGradient
       inkscape:collect="always"
       xlink:href="#b"
       id="linearGradient1"
       gradientUnits="userSpaceOnUse"
       gradientTransform="matrix(60.473632,0,0,60.473632,2026.2899,0.48376304)"
       x1="8.3640003"
       y1="2.3699999"
       x2="8.3640003"
       y2="14.902" />
    <linearGradient
       id="b-3"
       x1="8.3640003"
       x2="8.3640003"
       y1="2.3699999"
       y2="14.902"
       gradientTransform="matrix(60.473632,0,0,60.473632,2026.29,0.4837691)"
       gradientUnits="userSpaceOnUse">
      <stop
         offset="0"
         stop-color="#20ef85"
         id="stop7-6" />
      <stop
         offset="1"
         stop-color="#12a97e"
         id="stop8-7" />
    </linearGradient>
  </defs>
  <sodipodi:namedview
     id="namedview4"
     pagecolor="#ffffff"
     bordercolor="#666666"
     borderopacity="1.0"
     inkscape:showpageshadow="2"
     inkscape:pageopacity="0.0"
     inkscape:pagecheckerboard="0"
     inkscape:deskcolor="#d1d1d1"
     inkscape:zoom="14.535251"
     inkscape:cx="35.396706"
     inkscape:cy="34.192736"
     inkscape:window-width="1920"
     inkscape:window-height="1120"
     inkscape:window-x="0"
     inkscape:window-y="0"
     inkscape:window-maximized="1"
     inkscape:current-layer="svg4" />
  <path
     d="m 64.000018,63.999999 m 190.400002,0 h 515.2 q 190.39996,0 190.39996,190.400001 v 515.2 q 0,190.4 -190.39996,190.4 h -515.2 Q 64.000018,960 64.000018,769.6 V 254.4 q 0,-190.400001 190.400002,-190.400001 z"
     fill="#0377fc"
     p-id="4256"
     id="path1"
     style="stroke-width:0.88293"
     clip-path="url(#clipPath1)" />
  <path
     d="m 809.58402,529.248 -73.584,-72.632 -111.72,-112.616 -112.56,111.272 -112.56,-111.272 -111.72,112.56 -73.136,72.744 a 54.712,54.712 0 0 0 0,77.168 l 73.136,73.52801 112.112,-111.72001 112.168,113.512 112.112,-113.512 112.168,113.064 73.584,-73.136 a 56.56,56.56 0 0 0 0,-78.96 z"
     fill="#ffffff"
     p-id="4257"
     id="path2"
     style="stroke-width:0.88293" />
  <path
     d="M 404.85299,325.68909 523.64693,444.48303 286.05905,682.07091 167.26511,563.27697 Z"
     fill="#e0ebfd"
     p-id="4258"
     id="path3"
     style="stroke-width:0.88293" />
  <path
     d="m 397.51847,342.39517 118.104,105.504 -111.49599,132.72 h -3.52801 z"
     fill="#abc4fb"
     p-id="4259"
     id="path4"
     style="stroke-width:0.88293" />
</svg>

<svg xmlns="http://www.w3.org/2000/svg" xmlns:xlink="http://www.w3.org/1999/xlink" width="64" height="64" class="icon" viewBox="0 0 1024 1024"><defs><linearGradient id="a" x1="8.364" x2="8.364" y1="2.37" y2="14.902" gradientTransform="translate(2026.29 .484)scale(60.47363)" gradientUnits="userSpaceOnUse"><stop offset="0" stop-color="#20ef85"/><stop offset="1" stop-color="#12a97e"/></linearGradient><linearGradient xlink:href="#a" id="c" x1="8.364" x2="8.364" y1="2.37" y2="14.902" gradientTransform="translate(2026.29 .484)scale(60.47363)" gradientUnits="userSpaceOnUse"/><clipPath id="d" clipPathUnits="userSpaceOnUse"><rect width="896.038" height="896.038" x="63.981" y="63.981" fill="url(#a)" rx="208.029" ry="208.029" style="fill:url(#c);stroke-width:60.4736"/></clipPath></defs><path fill="#0377fc" d="M254.4 64h515.2Q960 64 960 254.4v515.2Q960 960 769.6 960H254.4Q64 960 64 769.6V254.4Q64 64 254.4 64" clip-path="url(#d)" style="stroke-width:.88293"/><path fill="#fff" d="M809.584 529.248 736 456.616 624.28 344 511.72 455.272 399.16 344 287.44 456.56l-73.136 72.744a54.71 54.71 0 0 0 0 77.168L287.44 680l112.112-111.72L511.72 681.792 623.832 568.28 736 681.344l73.584-73.136a56.56 56.56 0 0 0 0-78.96" style="stroke-width:.88293"/><path fill="#e0ebfd" d="m404.853 325.69 118.794 118.793-237.588 237.588-118.794-118.794Z" style="stroke-width:.88293"/><path fill="#abc4fb" d="M397.518 342.395 515.622 447.9 404.126 580.62h-3.528z" style="stroke-width:.88293"/></svg>
